src/pos-icons/air-humidifier.svg

<svg height="24" viewBox="0 0 24 24" width="24" xmlns="http://www.w3.org/2000/svg"><path d="m11 9c-2.21 0-4 1.79-4 4s1.79 4 4 4 4-1.79 4-4-1.79-4-4-4m0 6c-1.1 0-2-.89-2-2s.9-2 2-2 2 .9 2 2-.89 2-2 2m-4-11h7c2.21 0 4 1.79 4 4v1h-2v-1c0-1.1-.89-2-2-2h-7c-1.1 0-2 .9-2 2v12h11v-2h2v4h-15v-14c0-2.21 1.79-4 4-4m12 6.5s2 2.17 2 3.5c0 1.1-.9 2-2 2s-2-.9-2-2c0-1.33 2-3.5 2-3.5"/></svg>

<?xml version="1.0" encoding="UTF-8"?><!DOCTYPE svg PUBLIC "-//W3C//DTD SVG 1.1//EN" "http://www.w3.org/Graphics/SVG/1.1/DTD/svg11.dtd"><svg xmlns="http://www.w3.org/2000/svg" xmlns:xlink="http://www.w3.org/1999/xlink" version="1.1" id="mdi-air-humidifier" width="24" height="24" viewBox="0 0 24 24"><path d="M11 9C8.79 9 7 10.79 7 13S8.79 17 11 17 15 15.21 15 13 13.21 9 11 9M11 15C9.9 15 9 14.11 9 13S9.9 11 11 11 13 11.9 13 13 12.11 15 11 15M7 4H14C16.21 4 18 5.79 18 8V9H16V8C16 6.9 15.11 6 14 6H7C5.9 6 5 6.9 5 8V20H16V18H18V22H3V8C3 5.79 4.79 4 7 4M19 10.5C19 10.5 21 12.67 21 14C21 15.1 20.1 16 19 16S17 15.1 17 14C17 12.67 19 10.5 19 10.5" /></svg>
